lib/svgs/stage.svg

<?xml version="1.0" encoding="UTF-8"?>
<svg width="16px" height="16px" viewBox="0 0 16 16" version="1.1" xmlns="http://www.w3.org/2000/svg" xmlns:xlink="http://www.w3.org/1999/xlink">
    <!-- Generator: sketchtool 51.3 (57544) - http://www.bohemiancoding.com/sketch -->
    <title>app/stage</title>
    <desc>Created with sketchtool.</desc>
    <defs></defs>
    <g id="Icons" stroke="none" stroke-width="1" fill="none" fill-rule="evenodd">
        <g id="Web" transform="translate(-531.000000, -456.000000)" fill="#000000">
            <g id="app/stage" transform="translate(531.000000, 456.000000)">
                <path d="M14,0 L5.2,0 C4.1,0 3.2,0.9 3.2,2 L3.2,3.2 L2,3.2 C0.9,3.2 0,4.1 0,5.2 L0,14 C0,15.1 0.9,16 2,16 L10.8,16 C11.9,16 12.8,15.1 12.8,14 L12.8,12.8 L14,12.8 C15.1,12.8 16,11.9 16,10.8 L16,2 C16,0.9 15.1,0 14,0 M11.6,14 C11.6,14.434 11.234,14.8 10.8,14.8 L2,14.8 C1.566,14.8 1.2,14.434 1.2,14 L1.2,5.2 C1.2,4.766 1.566,4.4 2,4.4 L10.8,4.4 C11.234,4.4 11.6,4.766 11.6,5.2 L11.6,14 M14.8,10.8 C14.8,11.234 14.434,11.6 14,11.6 L12.8,11.6 L12.8,5.2 C12.8,4.1 11.9,3.2 10.8,3.2 L4.4,3.2 L4.4,2 C4.4,1.566 4.766,1.2 5.2,1.2 L14,1.2 C14.434,1.2 14.8,1.566 14.8,2 L14.8,10.8 M6.3942,10.5991 L3.1942,10.5991 C2.8622,10.5991 2.5942,10.8681 2.5942,11.1991 C2.5942,11.5301 2.8622,11.7991 3.1942,11.7991 L6.3942,11.7991 C6.7262,11.7991 6.9942,11.5301 6.9942,11.1991 C6.9942,10.8681 6.7262,10.5991 6.3942,10.5991 M9.5939,7.3999 L3.1939,7.3999 C2.8629,7.3999 2.5939,7.6689 2.5939,7.9999 C2.5939,8.3319 2.8629,8.5999 3.1939,8.5999 L9.5939,8.5999 C9.9259,8.5999 10.1939,8.3319 10.1939,7.9999 C10.1939,7.6689 9.9259,7.3999 9.5939,7.3999" id="Shape"></path>
            </g>
        </g>
    </g>
</svg>

<svg xmlns="http://www.w3.org/2000/svg" viewBox="0 0 16 16">
    <path d="M14 0H5.2c-1.1 0-2 .9-2 2v1.2H2c-1.1 0-2 .9-2 2V14c0 1.1.9 2 2 2h8.8c1.1 0 2-.9 2-2v-1.2H14c1.1 0 2-.9 2-2V2c0-1.1-.9-2-2-2m-2.4 14a.81.81 0 0 1-.8.8H2a.81.81 0 0 1-.8-.8V5.2c0-.434.366-.8.8-.8h8.8c.434 0 .8.366.8.8V14m3.2-3.2a.81.81 0 0 1-.8.8h-1.2V5.2c0-1.1-.9-2-2-2H4.4V2c0-.434.366-.8.8-.8H14c.434 0 .8.366.8.8v8.8m-8.406-.2h-3.2a.6.6 0 1 0 0 1.2h3.2a.6.6 0 1 0 0-1.2m3.2-3.2h-6.4a.6.6 0 0 0 0 1.2h6.4a.6.6 0 1 0 0-1.2"/>
</svg>
